X:1
T:St. Nicholas (Schofield), 10.6.10.6
T:St. Nicholas (Schofield), 10.6.10.6
T:Clement Cotterill Scholefield, 1870
T:Public Domain Courtesy of the Cyber Hymnal™
C:Clement Cotterill Scholefield, 1870
Z:Public Domain
Z:Courtesy of the Cyber Hymnal™
%%score ( 1 2 ) ( 3 4 )
L:1/8
M:4/4
K:Eb
V:1 treble 
V:2 treble 
V:3 bass 
V:4 bass 
V:1
 [EG]4 [EG]2 [EG]2 | [EB]4 [EG]4 | [DF]2 [EG]2 [EA]2 [DB]2 | [EG]4 [FG]4 | [=EG]4 [Ec]4 | %5
 [FB]4 ([FA]2 [EG]2) | ([EG]4 [DF]4) | [EG]4 [FA]2 [FG]2 | [=Ec]4 [FA]4 | [DG]2 [DF]2 [DG]2 [DA]2 | %10
 [EB]4 [F=B]4 | [Ec]4 (F2 G2) | [EA]4 (G2 F2) | E8 |] %14
V:2
 x8 | x8 | x8 | x8 | x8 | x8 | x8 | x8 | x8 | x8 | x8 | x4 E4 | x4 D4 | E8 |] %14
V:3
 [E,B,]4 [E,B,]2 [E,B,]2 | [G,B,]4 [E,B,]4 | [A,B,]2 [G,B,]2 [F,C]2 [B,,B,]2 | [E,B,]4 [D,=B,]4 | %4
 [C,C]4 [C,C]4 | C4 C4 | B,8 | [E,B,]4 [D,=B,]2 [D,B,]2 | [C,C]4 [F,C]4 | B,2 B,2 [A,B,]2 [A,B,]2 | %10
 [G,B,]4 [G,,D]4 | [A,,C]4 C4 | [F,C]4 (B,2 A,2) | [E,G,]8 |] %14
V:4
 x8 | x8 | x8 | x8 | x8 | (F,2 G,2) (A,2 =A,2) | (B,4 B,,4) | x8 | x8 | x8 | x8 | x4 (A,2 G,2) | %12
 x4 B,,4 | x8 |] %14

